X:1
T:大提琴练习曲_Book1_P6_No.16
T:大提琴练习曲_Book1_P10_No.16
L:1/8
Q:1/4=20
M:6/8
K:Bb
V:1 bass nm="Piano" snm="Pno."
V:1
 C,,2 C,,2 C,,2 |!f!"^大把位" (vB,D)C B,A,G, | u^F,6 | (vG,A,B,) (A,B,C) | (B,A,)G, (^F,A,)D, | %5
 (B,D)C B,A,G, | ^F,6 | (G,A,B,) (A,G,E,) |"^小把位" D,C,A,, G,,2 z |!p! (DCB,) B,3 | %10
 CC,,!2!E,, G,,!3!B,,C, | A,,3 A,3 |"^大把位" B,3 (^F,3 | !4!G,3) !4!^C,3 |!<(! D,6!<)! | %15
 (B,D)C B,A,G, | ^F,6 | (G,A,B,) (A,B,C) | (B,A,)G, (^F,A,)D, | (B,D)C B,A,"^小把位"G, | =B,6 | %21
"^大把位" (C_B,A,) A,G,E, |"^小把位\n" D,C,A,, G,,2 z |] %23

